X:1
T:James Gibb editions
T:Adoramus te Domine - Remondi
T:#
%%score { 1 | 2 } 3
L:1/8
Q:1/4=69
M:4/4
K:C
V:1 treble nm="Soprano I" snm="S"
V:2 treble 
V:3 treble nm="Alto" snm="A"
V:1
"^Adoramus te Domine, op.78""^Roberto Remondi\n (1851-1928)""^andante"!pp! e6 e2 | B4"^," B2 BB | %2
w: A- do-|ra- mus, a- do-|
 c4 A4 | B6 (B2 | d2) dd c2 B2 | e4"^," e2 e2 | f3!<(! f e2 d!<)!d |[M:4/4]!>(! g4 g2!>)! z2 | %8
w: ra- mus|te, Do\-|* mi- ne Je- su|Chri- ste, et|be- ne- di- ci- mus|ti- bi:|
!pp! c4 d2 d2 | e2 g2 f2 e2 | (e2 dc)"^," d2 d2 | e3 e e2 B2 | c4 c2 cc | B4 A4 | d4 d2 z2 | %15
w: qui- a per|san- ctam cru- cem|tu\- * * am et|pas- si- o- nem|tu- am re- de-|mi- sti|mun- dum,|
!f! !>!g3 g e2 z2 |!>(! !>!f3 f!>)!"^," d2!pp! de | (f2 e2 d2) e2 | c4"^," c2 cc | c3 c (c2 d2) | %20
w: Do- mi- ne,|Do- mi- ne mi- se-|re\- * * re|no- bis, mi- se-|re- re no\- *|
 !fermata!e8 |] %21
w: bis.|
V:2
!pp! G6 G2 | G4"^," G2 GG | E4 F4 | D6 (G2 | A2) AA A2 ^G2 | A4"^," A2 c2 | c3!<(! c c2 B!<)!B | %7
w: A- do-|ra- mus, a- do-|ra- mus|te, Do\-|* mi- ne Je- su|Chri- ste, et|be- ne- di- ci- mus|
[M:4/4]!>(! c4 c2!>)! z2 |!pp! c4 c2 B2 | c2 c2 c2 c2 | (c2 BA)"^," B2 B2 | B3 B B2 G2 | G4 G2 GG | %13
w: ti- bi:|qui- a per|san- ctam cru- cem|tu\- * * am et|pas- si- o- nem|tu- am re- de-|
 G4 ^F4 | G4 G2 z2 |!f! !>!B3 B c2 z2 |!>(! !>!A3 A!>)!"^," B2!pp! BB | (c2 B2 A2) B2 | %18
w: mi- sti|mun- dum,|Do- mi- ne,|Do- mi- ne mi- se-|re\- * * re|
 G4"^," G2 GG | A3 A A4 | !fermata!G8 |] %21
w: no- bis, mi- se-|re- re no-|bis.|
V:3
!pp! C6 C2 | E4"^," E2 EE | A,4 D4 | G,6 (G2 | F2) FF E3 D | C4"^," C2 A2 | A3!<(! A G2 G!<)!F | %7
w: A- do-|ra- mus, a- do-|ra- mus|te, Do\-|* mi- ne Je- su|Chri- ste, et|be- ne- di- ci- mus|
[M:4/4]!>(! E4 E2!>)! z2 |!pp! A4 G2 G2 | c2 _B2 A2 G2 | G4"^," G2 G2 |!>(! G3 G G2!>)! E2 | %12
w: ti- bi:|qui- a per|san- ctam cru- cem|tu- am et|pas- si- o- nem|
 E4 E2 EE | D6 C2 | B,4 B,2 z2 |!f! !>!E3 E A2 z2 |!>(! !>!D3 D!>)!"^," G2!pp! GG | (A2 G2 F2) G2 | %18
w: tu- am re- de-|mi- sti|mun- dum,|Do- mi- ne,|Do- mi- ne mi- se-|re\- * * re|
 E4"^," E2 EE | F3 F F4 | !fermata!C8 |] %21
w: no- bis, mi- se-|re- re no-|bis.|

